X: 9817
T:Crucaharan Cross
R:March
D:"Selected Jigs & Reels" by De Dannan
M:4/4
L:1/8
Q:150
K:G
B/A/|:GdBd GG/G/Ge|dBB/A/G/A/ BAAB/A/|GdBd GG/G/Ge|1 dBA/B/A G2GB/A/:|2 dBA/B/A G2Ge !
|:d>eg>e dBGe|dBB/A/G/A/ BAAB/A/|GdBd GG/G/Ge|1 dBA/B/A G2Ge:|2 dBA/B/A G2G||!
